X: 31425
T: Paddy Ryan's Dream
R: reel
M: 4/4
K: Aminor
{AB}c/B/|AE E/E/E {ABc}cABG|EGDG B,G,DB,|A,/A,/A, EA, {B,}CDEd|cAB^G A/A/A A:|
Aa{b}a^g aecA|Bg{a}g^f gdBG|Aa{b}a^g aefd|ec{c}dB cAAB|
Aa(a^g) ae{^d}cA|Bg{a}g^f {f}gdBG|AcBd cedf|ea^g^f edcB||

